X:1     %Music
T:By Your Leaves
B:Journal of the English Folk Dance Society, 1928, Oxford University Press, London
Z:Anne G Gilchrist
S:Mr Dent, Orton, 1914
M:2/4     %Meter
L:1/16     %
K:F
c2 |FF3 G2E2 |F6 A2 |B2d2 c2A2 | G6
w:By your leaves, gen-tle-men, I've come to take a view.
F2 |A2c2 d2B2 |c6 F2 |A2G2 F2E2 |F6  |]
w:To see what pass-es here, My danc-ers they come new.
     %End of file
